X:7
%%pagewidth 9in
%%vocalfont Baskerville10Pro 13
%%score 1 2
T: Pastime with good company
M:C
L:1/8
K:Bb
V:1 clef=treble
V:2 clef=bass
V:1 
G3 G [DGB]2 [EGB]2 & [B,D]4x4 | (A>BA[EG]) [DF]2 [CF]2 & [CF]2x6| B3 B A2 G2 & [B,D]2x2 [CE]4| ^FG F2 [B,DG]4 & [CD]4 x4 |
w:Pas-time with good com** pa-ny I love, and shall un-til* I die;
V:2
G,,4 G,2 E,2 | F,4 B,2 A,2 | G,4 C,4 | D,4 G,4 | 
V:1
B3 B [DGB]2 [EGB]2 & [B,D]4 x4 | (A>B)(A[EG]) [DF]2 [CF]2 & [CF]2 x6 | B3 B A2 G2 & [B,D]2x2 [CE]4 | ^FG F2 [B,DG]2 z [B,D=F] & [CD]4 x4 | [B,EG]2 [CEA]2 [B,FB]2 z [B,DF]|
w:Grudge who will, but none* de-*ny, So God be pleas'd this life* will I: For my past-ance, Hunt,
V:2
G,,4 G,2 E,2 | F,4 B,2 A,2 | G,4 C,4 | D,4 G,,2 z B,,| E,2 C,2 D,2 z B,,| 
V:1
[B,EG]2 [CEA]2 [DFB]2 [EGB]2 | (A>BA)[EG] [DF]2 z [B,DF] & [CF]2 x6 | [B,EG]2 [CEA]2 [DFB]2 z [BDF] | [B,EG]2 [D^FA]2 [DGB]2 [DGB]2 | A2 G2 !lowermordent!^F4 & [CE]4 [CD]4 | [B,DG]8|
w: sing and dance; My heart** is set. All good-ly sport  To my comfort,* Who shall* me let?
V:2
E,2 C,2 B,,2 E,2 | F,4 B,2 z B,,| E,2 C,2 B,,2 z B,,|E,2 D,2 G,2 G,,2| C,4 D,4|G,,8|

